X:58
T:14. Gaillarde
C:Tielman Susato
B:Tielman Susato: "Danserye" (1551) no. 58
R:Galliard
Z:Transcribed by Frank Nordberg - http://www.musicaviva.com
F:http://abc.musicaviva.com/tunes/susato-tielman/susato-1551-58/susato-1551-58-4m.abc
M:3/2
L:1/2
K:Gmix
V:1
ddd|d>cd|edc|B2A|ccd|c2B|A2^G|A2z:|
|:ccd|e>de|fed|e2c|cde|f2e|d2^c|d2z:|
|:dcd|ed/c/B|cBc|dc/_B/A|_BA_B|c>BA|G2^F|G2z:|
V:2
GGG|G2G|EGG|G2C|AAG|AEG|EE2|E2z:|
|:AAF|A2A|AAA|c3|cAc|c2c|AA2|A2z:|
|:AAA|cCD|E/F/GG|_BF/G/A/D/|GFG|G2F|DD2|D2z:|
V:3
B,B,B,|B,>A,G,|G>FE|D>EF|EED|ECD|CB,2|A,2z:|
|:EED|C>B,C|DEF|G2E|EFG|AFG/F/|E/D/E2|D2z:|
|:FEF|GG2|EDE|FF2|DCD|E>DC|_B,A,2|G,2z:|
V:4
G,G,G,|G,>A,B,|CG,C,|G,2F,|A,A,B,|A,2G,|A,E,2|A,2z:|
|:A,A,_B,|A,2A,|D,A,D|C3|A,DC|F,2C|DA,2|D,2z:|
|:DA,D|CB,/A,/G,|CG,C|_B,A,/G,/F,|G,A,G,|C,2F,|G,D,2|G,2z:|
W:
W:
W:  From Musica Viva - http://www.musicaviva.com
W:  the Internet center for free sheet music downloads.
